X:1
T:Invention No 4 in D minor
T:BWV 775
T:J.S. Bach
%%score { 1 | 2 }
L:1/8
M:3/8
K:F
V:1 treble nm="Piano"
V:2 bass 
V:1
!f! (D/E/)F/G/A/B/ | ^C/(B/A/)G/F/E/ | .F.A.d | .G.^c.e | (d/e/)f/g/a/b/ | ^c/(b/a/)g/f/e/ | %6
 f/d/e/f/g/a/ | B/(a/g/)f/e/d/ |!>(! e/c/d/e/f/g/!>)! | A/(g/f/)e/d/c/ |!p! d/e/f/d/e/f/ | G z z | %12
 (c/d/)e/c/d/e/ | F z!<(! B-!<)! | BPAG |!f! c/B/A/G/F/E/ | F/G<PGF/ | Fcc | %18
 d/4c/4d/4c/4!>(!d/4c/4d/4c/4d/4c/4d/4c/4!>)! | d/4c/4d/4c/4d/4c/4d/4c/4d/4c/4d/4c/4 | %20
 d/4c/4d/4c/4d/4c/4d/4c/4d/4c/4d/4c/4- | c/(B/A/)G/F/E/ | c/(D/E/^F/G/A/ | B/A/G/=F/E/D/ | %24
 B/)!<(!(C/D/E/F/G/!<)! | A/=B/c/d/e/f/ |!f! ^G/)(f/e/d/c/=B/ | c/=B/d/c/=B/A/ | %28
 ^G/!>(!A/^G/^F/E/D/!>)! | C/D/E/^F/^G/A/ | D/)(c/=B/A/^G/^F/ |!<(! E/^F/^G/A/=B/c/!<)! | %32
 ^F/)(e/d/c/=B/A/ | ^G/A/=B/c/d/e/ | A/f/e/d/c/=B/ | a/^g/^f/e/a-) | a/(d<P=BA/ |!p! A>)(A_B/c/) | %38
 D^FA | (B/G/A/B/c/d/ | E/)(d/c/)B/A/G/ | A!mf!(f/e/f | G)e z | (d/e/f/g/a/b/ | ^c/)(b/a/g/f/e/ | %45
 f)!>(!dG-!>)! | G/(d/^c/e/A/^c/ | d/=B<^cd/) | (d/=c/)_B/A/G/F/ | B/(^C/D/E/F/G/ | A/d/)(FE/D/ | %51
 D3) |] %52
V:2
 z3 | z3 |!f! (D,/E,/)F,/G,/A,/B,/ | ^C,/(B,/A,/)G,/F,/E,/ | .F,.A,.D | .E,.G,.^C | .D,.D.F, | %7
 .G,.A,.B, | .C,.C.E, | .F,.G,.A, | (B,/G,/)A,/B,/C/D/ | E,/(D/C/)B,/A,/G,/ | A,/F,/G,/A,/B,/C/ | %13
 D,/(C/B,/)A,/G,/F,/ | E,/C,/D,/E,/F,/G,/ | A,,/(G,/F,/)E,/D,/C,/ | D,/B,,/C,C,, | %17
 (F,,/G,,/)A,,/B,,/C,/D,/ | E,,/(D,/C,/)B,,/A,,/G,,/ | A,,/B,,/C,/D,/E,/F,/ | %20
 G,,/(F,/E,/)D,/C,/B,,/ | A,,/B,,/C,/A,,/B,,/C,/ | ^F,, z2 | (G,,/A,,/B,,/G,,/A,,/B,,/ | E,,) z2 | %25
 .F,,.F,.D, | .=B,,.^G,,.E,, | A,,/(^G,,/A,,/=A,,/C,/D,/ | %28
 =F,/4)E,/4F,/4E,/4F,/4E,/4F,/4E,/4F,/4E,/4F,/4E,/4 | %29
 =F,/4E,/4F,/4E,/4F,/4E,/4F,/4E,/4F,/4E,/4F,/4E,/4 | %30
 =F,/4E,/4F,/4E,/4F,/4E,/4F,/4E,/4F,/4E,/4F,/4E,/4 | %31
 =F,/4E,/4F,/4E,/4F,/4E,/4F,/4E,/4F,/4E,/4F,/4E,/4 | %32
 =F,/4E,/4F,/4E,/4F,/4E,/4F,/4E,/4F,/4E,/4F,/4E,/4 | E,ED | C=B,A, |!f! DE=F | DEE, | %37
 A,/(A,,/_B,,/C,/D,/_E,/ | ^F,,/)(_E,/D,/C,/B,,/A,,/ | G,,>)(G,,A,,/B,,/) | C,,G,,C, | %41
 (F,/G,/)A,/=B,/^C/D/ | E,/(D/^C/=B,/A,/G,/ | F,)A,D | E,G,^C | (D,/E,/F,/G,/A,/B,/ | %46
 ^C,/)(B,/A,/G,/F,/E,/ | F,/G,/!f!A,)(A,, | B,,>)C,B,,/A,,/ | G,,/(B,/A,/)G,/F,/E,/ | F,/G,/A,A,, | %51
 D,,3 |] %52

